X:86
T:Carnival de Venise, Le. CJF.086
T:Le Carnival de Venise. CJF.086
R:Air
S:C.J.Fox MS, 1829/33, Beverley,E.Yorks.
B:Kidson Coll.Mitchell Lib.M1805
O:England
A:East Yorkshire
Z:vmp.P J Headford 2000 & 2008
M:6/8
L:1/8
Q:3/8=80
K:A
“$”e|f2ed2c|e2dB3|c2df2e|c3c2e|\
a2ed2c|e2dB3|c2df2e|A3-” Fine”A2h:|!
|:e|(ed)c (cB)A|G2Bd2B|f2e^d2e|(c3A2)e|\
edc cBA|G2Bd2B|f2e^d2e|A3-A2″$”:|!
K:D
|:A|d2ef2g|(a3b2)a|^g2a=g2a|(f3d2)A|\
d2ef2g|a3b2a|^g2a=g2e|d3-” $”d2|]

